icons/desktop/16/svg/camera-slash-16.svg

<svg width="16" height="16" viewBox="0 0 16 16" fill="none" xmlns="http://www.w3.org/2000/svg">
<path fill-rule="evenodd" clip-rule="evenodd" d="M0.21967 0.21967C0.512563 -0.0732233 0.987324 -0.0732233 1.28022 0.21967L3.21088 2.15033H3.21283L4.60639 3.54389H4.60444L15.7802 14.7197C16.0731 15.0126 16.0731 15.4873 15.7802 15.7802C15.4873 16.0731 15.0126 16.0731 14.7197 15.7802L11.5263 12.5869C11.0986 13.22 10.4155 13.6696 9.61518 13.7714C8.42218 13.9234 7.20592 13.9999 6.00092 13.9999C4.80395 13.9999 3.59793 13.9234 2.41596 13.7744C1.03896 13.6004 0.000919923 12.4249 0.000919923 11.0419V4.95795C0.000926165 3.91212 0.587671 2.98643 1.46186 2.5224L0.21967 1.28022C-0.0732233 0.987324 -0.0732233 0.512563 0.21967 0.21967ZM2.57612 3.71674C1.96312 3.79474 1.50092 4.32797 1.50092 4.95697V11.041C1.50092 11.6698 1.97466 12.2049 2.60444 12.2851C4.85037 12.5691 7.17081 12.5692 9.42475 12.2812C9.88749 12.2223 10.263 11.9034 10.4199 11.4804L2.6474 3.70795C2.62364 3.71091 2.59986 3.7137 2.57612 3.71674Z" fill="black"/>
<path d="M4.86713 2.03608C6.44504 1.97409 8.03199 2.02857 9.5849 2.22455C10.6918 2.36354 11.5796 3.15191 11.8857 4.17377L12.1591 3.90131C12.8141 3.24531 13.7533 3.06003 14.6113 3.41303C15.4681 3.76809 15.9999 4.56423 15.9999 5.49213V10.5078C15.9999 11.2337 15.6671 11.8701 15.1162 12.2871L14.0322 11.2031L14.0371 11.2011C14.1461 11.1551 14.4999 10.9727 14.4999 10.5078V5.49213C14.4999 5.02814 14.1451 4.84478 14.0371 4.79877C13.9281 4.75577 13.5487 4.63386 13.2197 4.96186L11.7812 6.40131C11.5672 6.61528 11.2448 6.67938 10.9638 6.5644C10.6838 6.4484 10.5009 6.17502 10.5009 5.87104V4.95795C10.5009 4.32811 10.0262 3.793 9.3974 3.71381C8.3894 3.58681 7.36276 3.52369 6.34076 3.51069L4.86713 2.03608Z" fill="black"/>
</svg>

<!-- This Source Code Form is subject to the terms of the Mozilla Public
   - License, v. 2.0. If a copy of the MPL was not distributed with this
   - file, You can obtain one at http://mozilla.org/MPL/2.0/. -->
<svg xmlns="http://www.w3.org/2000/svg" width="16" height="16" fill="context-fill" fill-opacity="context-fill-opacity" viewBox="0 0 16 16">
    <path fill-rule="evenodd" d="M.22.22a.75.75 0 0 1 1.06 0l1.93 1.93h.003l1.393 1.394h-.002L15.78 14.72a.75.75 0 1 1-1.06 1.06l-3.194-3.193a2.72 2.72 0 0 1-1.91 1.184 28.7 28.7 0 0 1-7.2.003 2.76 2.76 0 0 1-2.415-2.732V4.958a2.76 2.76 0 0 1 1.46-2.436L.22 1.28a.75.75 0 0 1 0-1.06m2.356 3.497a1.244 1.244 0 0 0-1.075 1.24v6.084a1.26 1.26 0 0 0 1.103 1.244c2.246.284 4.567.284 6.82-.004.463-.059.839-.378.996-.8L2.647 3.707z" clip-rule="evenodd" />
    <path d="M4.867 2.036a29 29 0 0 1 4.718.189 2.77 2.77 0 0 1 2.3 1.949l.274-.273a2.22 2.22 0 0 1 2.452-.488A2.215 2.215 0 0 1 16 5.493v5.015c0 .726-.333 1.362-.884 1.78l-1.084-1.085.005-.002a.74.74 0 0 0 .463-.693V5.492a.74.74 0 0 0-.463-.693.74.74 0 0 0-.817.163l-1.439 1.44a.75.75 0 0 1-1.28-.53v-.914a1.26 1.26 0 0 0-1.104-1.244 27 27 0 0 0-3.056-.203z" />
</svg>
